X: 495
%
U:~=!turn!
T: Mrs. Robertson Grishornish
C:
O:Scotland
B:Keith Norman MacDonald : "The Skye collection of the best reels & strathspeys extant" : 1887
Z:Ralph Palmer
R:Strathspey
M:C
L:1/8
K:D mixolydian
e | .d.B B<d BA FA | a>f fe de/f/ e<d | B2 B<d B<A FA | affe d2 d :|
defg agfe | baff edef | defg a<g f<f | b>a g<f f<e d<d |
efga gffb | afed e<f f2 | edBB dBAF | Aa ff e2 d2 |]


